X:1
T:Ryb An Avon
R:Air
O: Cornish Air
M:4/4
L:1/4
K:G
E | "Am"A A/2B/2 c/2B/2 A| e/2f/2 g2 "Em"e/2d/2|"Am"c/2e/2d/2c/2 "G"B/2d/2c/2B/2|
"Am(F)"A A/2G/2 E/2D/2E/2G/2| "Am"A A/2B/2c/2B/2 A| "Em"e/2f/2g2 g| "D"a f/2e/2 d/2e/2f/2d/2|
"Em"e/2f/2g/2f/2 e e/2f/2| "C"g f/2e/2 "D"a a| "Em"g/2a/2f/2g/2 e e/2d/2|
"Am" cA A/2B/c/2A/2| "G"G G/2F/2 "Em"E/2D/2E/2G/2|"Am"A A/2B/2 c/2B/2 A|
"Em" e/2f/2 g "D"a e/2d/2| "Am"c/2e/2d/2c/2 "G"B/2d/2c/2B/2| "Am"A/2G/"Em(g)"E/2G/2 "Am"A|]
